X: 7
T:Barley Cakes - 2nd Part
M:6/8
L:1/8
C:Trish Barker
R:Jig
K:G
||: z|G2 D G3|=F2 D F3|G2 D G3|G3 B3|G2 D G3|!
=F2 D FGA|BAG AG^F|G3 G,2:||:z| B3 A3|c2 B G3|!
edc d2 B|c3 F3|A3 G3|F3 D3|G2 G F2 F|GDB,G,2:||
